;FLAVOR:Marlin
;TIME:5013
;Filament used: 4.51924m
;Layer height: 0.2
;MINX:52.612
;MINY:52.613
;MINZ:0.2
;MAXX:182.39
;MAXY:182.389
;MAXZ:7
;TARGET_MACHINE.NAME:Creality Ender-3
;Generated with Cura_SteamEngine 5.6.0
M140 S50
M105
M190 S50
M104 S200
M105
M109 S200
M82 ;absolute extrusion mode
; Ender 3 Custom Start G-code
G92 E0 ; Reset Extruder
G28 ; Home all axes
G1 Z2.0 F3000 ; Move Z Axis up little to prevent scratching of Heat Bed
G1 X0.1 Y20 Z0.3 F5000.0 ; Move to start position
G1 X0.1 Y200.0 Z0.3 F1500.0 E15 ; Draw the first line
G1 X0.4 Y200.0 Z0.3 F5000.0 ; Move to side a little
G1 X0.4 Y20 Z0.3 F1500.0 E30 ; Draw the second line
G92 E0 ; Reset Extruder
G1 Z2.0 F3000 ; Move Z Axis up little to prevent scratching of Heat Bed
G1 X5 Y20 Z0.3 F5000.0 ; Move over to prevent blob squish
G92 E0
G92 E0
G1 F2700 E-5
;LAYER_COUNT:35
;LAYER:0
M107
G0 F6000 X60.195 Y95.971 Z0.2
;TYPE:SKIRT
G1 F2700 E0
G1 F1200 X60.826 Y95.578 E0.02472
G1 X63.275 Y94.168 E0.11871
G1 X65.425 Y92.843 E0.20271
G1 X67.524 Y91.469 E0.28615
G1 X69.575 Y90.04 E0.36929
G1 X71.631 Y88.522 E0.4543
G1 X73.592 Y86.985 E0.53717
G1 X75.52 Y85.385 E0.6205
G1 X77.443 Y83.693 E0.70569
G1 X79.257 Y82.005 E0.7881
G1 X81.043 Y80.247 E0.87146
G1 X82.798 Y78.417 E0.95579
G1 X84.506 Y76.532 E1.04039
G1 X86.118 Y74.648 E1.12286
G1 X87.705 Y72.687 E1.20677
G1 X89.24 Y70.671 E1.29105
G1 X90.719 Y68.618 E1.3752
G1 X92.098 Y66.576 E1.45716
G1 X93.446 Y64.456 E1.54071
G1 X95.772 Y60.512 E1.69301
G1 X96.27 Y59.746 E1.72339
G1 X96.53 Y59.381 E1.7383
G1 X96.924 Y58.865 E1.75989
G1 X97.143 Y58.597 E1.7714
G1 X97.613 Y58.056 E1.79524
G1 X97.899 Y57.748 E1.80922
G1 X98.51 Y57.139 E1.83791
G1 X98.99 Y56.705 E1.85943
G1 X99.363 Y56.389 E1.87569
G1 X100.024 Y55.872 E1.90361
G1 X100.314 Y55.663 E1.91549
G1 X100.828 Y55.314 E1.93616
G1 X101.267 Y55.035 E1.95346
G1 X102.236 Y54.487 E1.99048
G1 X102.687 Y54.263 E2.00723
G1 X103.396 Y53.941 E2.03313
G1 X103.776 Y53.785 E2.0468
G1 X104.433 Y53.541 E2.07011
G1 X104.867 Y53.395 E2.08534
G1 X105.8 Y53.129 E2.1176
G1 X106.421 Y52.984 E2.13881
G1 X107.46 Y52.795 E2.17394
G1 X107.954 Y52.729 E2.19051
G1 X108.759 Y52.653 E2.21741
G1 X109.215 Y52.627 E2.2326
G1 X110.037 Y52.613 E2.25994
G1 X110.927 Y52.644 E2.28956
G1 X114.057 Y52.816 E2.39382
G1 X116.595 Y52.878 E2.47826
G1 X119.08 Y52.869 E2.56092
G1 X121.664 Y52.785 E2.6469
G1 X124.39 Y52.63 E2.73772
G1 X125.306 Y52.614 E2.76819
G1 X125.796 Y52.628 E2.78449
G1 X126.547 Y52.675 E2.80952
G1 X126.875 Y52.708 E2.82049
G1 X127.664 Y52.815 E2.84697
G1 X128.283 Y52.924 E2.86787
G1 X129.296 Y53.153 E2.90242
G1 X129.761 Y53.282 E2.91847
G1 X130.53 Y53.527 E2.94531
G1 X130.962 Y53.684 E2.9606
G1 X131.769 Y54.013 E2.98958
G1 X132.223 Y54.222 E3.00621
G1 X132.971 Y54.6 E3.03408
G1 X133.376 Y54.826 E3.04951
G1 X134.144 Y55.297 E3.07947
G1 X134.577 Y55.589 E3.09684
G1 X135.16 Y56.011 E3.12078
G1 X135.421 Y56.213 E3.13176
G1 X136.077 Y56.767 E3.16031
G1 X136.506 Y57.159 E3.17964
G1 X137.174 Y57.828 E3.21109
G1 X137.508 Y58.193 E3.22754
G1 X137.964 Y58.726 E3.25087
G1 X138.173 Y58.988 E3.26202
G1 X138.685 Y59.682 E3.2907
G1 X139.019 Y60.178 E3.31059
G1 X139.418 Y60.819 E3.33571
G1 X140.813 Y63.243 E3.42873
G1 X142.116 Y65.363 E3.51149
G1 X143.502 Y67.485 E3.59579
G1 X144.951 Y69.565 E3.6801
G1 X146.43 Y71.569 E3.76294
G1 X147.989 Y73.561 E3.84708
G1 X149.622 Y75.529 E3.93213
G1 X151.257 Y77.389 E4.0145
G1 X152.971 Y79.233 E4.09823
G1 X154.712 Y81.003 E4.18081
G1 X156.566 Y82.782 E4.26627
G1 X158.402 Y84.449 E4.34875
G1 X160.348 Y86.117 E4.434
G1 X162.275 Y87.677 E4.51646
G1 X164.271 Y89.199 E4.59995
G1 X166.349 Y90.696 E4.68513
G1 X168.409 Y92.091 E4.76787
G1 X170.538 Y93.448 E4.85185
G1 X172.72 Y94.751 E4.93638
G1 X173.892 Y95.414 E4.98116
G1 X174.53 Y95.795 E5.00588
G1 X175.124 Y96.18 E5.02942
G1 X175.479 Y96.428 E5.04382
G1 X176.085 Y96.883 E5.06903
G1 X176.388 Y97.128 E5.08199
G1 X177.132 Y97.788 E5.11507
G1 X177.597 Y98.242 E5.13668
G1 X178.291 Y98.983 E5.17045
G1 X178.606 Y99.355 E5.18666
G1 X179.124 Y100.018 E5.21465
G1 X179.393 Y100.389 E5.22989
G1 X179.846 Y101.074 E5.2572
G1 X180.121 Y101.529 E5.27488
G1 X180.549 Y102.305 E5.30436
G1 X180.744 Y102.698 E5.31895
G1 X181.079 Y103.437 E5.34594
G1 X181.276 Y103.925 E5.36344
G1 X181.585 Y104.798 E5.39424
G1 X181.724 Y105.247 E5.40988
G1 X181.931 Y106.024 E5.43662
G1 X182.048 Y106.548 E5.45448
G1 X182.193 Y107.351 E5.48162
G1 X182.25 Y107.751 E5.49506
G1 X182.336 Y108.588 E5.52304
G1 X182.371 Y109.139 E5.54141
G1 X182.39 Y109.962 E5.56879
G1 X182.365 Y110.796 E5.59654
G1 X182.186 Y114.057 E5.70516
G1 X182.124 Y116.597 E5.78967
G1 X182.133 Y119.08 E5.87225
G1 X182.217 Y121.671 E5.95848
G1 X182.374 Y124.438 E6.05065
G1 X182.387 Y125.338 E6.08059
G1 X182.373 Y125.798 E6.0959
G1 X182.325 Y126.555 E6.12113
G1 X182.284 Y126.957 E6.13457
G1 X182.17 Y127.775 E6.16204
G1 X182.07 Y128.326 E6.18066
G1 X181.847 Y129.297 E6.2138
G1 X181.705 Y129.808 E6.23144
G1 X181.463 Y130.565 E6.25787
G1 X181.325 Y130.947 E6.27138
G1 X181.03 Y131.677 E6.29757
G1 X180.847 Y132.085 E6.31244
G1 X180.465 Y132.853 E6.34097
G1 X180.208 Y133.321 E6.35873
G1 X179.712 Y134.134 E6.3904
G1 X179.42 Y134.569 E6.40783
G1 X178.981 Y135.174 E6.43269
G1 X178.76 Y135.456 E6.44461
G1 X178.216 Y136.099 E6.47262
G1 X177.834 Y136.516 E6.49143
G1 X177.158 Y137.191 E6.5232
G1 X176.795 Y137.522 E6.53954
G1 X176.107 Y138.099 E6.56941
G1 X175.761 Y138.365 E6.58392
G1 X175.084 Y138.846 E6.61155
G1 X174.66 Y139.123 E6.62839
G1 X174.148 Y139.438 E6.64838
G1 X171.714 Y140.84 E6.74181
G1 X169.559 Y142.167 E6.82598
G1 X167.465 Y143.538 E6.90923
G1 X165.415 Y144.967 E6.99234
G1 X163.362 Y146.483 E7.07723
G1 X161.398 Y148.023 E7.16024
G1 X159.47 Y149.623 E7.24357
G1 X157.554 Y151.309 E7.32845
G1 X155.73 Y153.007 E7.41134
G1 X153.95 Y154.76 E7.49443
G1 X152.189 Y156.597 E7.57907
G1 X150.475 Y158.487 E7.66393
G1 X148.886 Y160.344 E7.74522
G1 X147.286 Y162.322 E7.82984
G1 X145.761 Y164.322 E7.91349
G1 X144.271 Y166.395 E7.9984
G1 X142.887 Y168.442 E8.08059
G1 X141.547 Y170.549 E8.16364
G1 X139.349 Y174.287 E8.30786
G1 X138.875 Y175.039 E8.33743
G1 X138.603 Y175.434 E8.35338
G1 X138.131 Y176.065 E8.37959
G1 X137.823 Y176.447 E8.39591
G1 X137.114 Y177.238 E8.43124
G1 X136.678 Y177.677 E8.45182
G1 X136.01 Y178.297 E8.48213
G1 X135.646 Y178.606 E8.49801
G1 X135.007 Y179.106 E8.525
G1 X134.626 Y179.381 E8.54063
G1 X133.865 Y179.886 E8.571
G1 X133.446 Y180.138 E8.58727
G1 X132.711 Y180.541 E8.61515
G1 X132.28 Y180.756 E8.63117
G1 X131.573 Y181.075 E8.65696
G1 X131.167 Y181.239 E8.67153
G1 X130.334 Y181.54 E8.70099
G1 X129.79 Y181.709 E8.71993
G1 X128.919 Y181.942 E8.74992
G1 X128.446 Y182.048 E8.76604
G1 X127.555 Y182.207 E8.79615
G1 X127.058 Y182.273 E8.81282
G1 X126.241 Y182.349 E8.84011
G1 X125.785 Y182.375 E8.8553
G1 X124.963 Y182.389 E8.88265
G1 X124.073 Y182.358 E8.91227
G1 X120.943 Y182.186 E9.01653
G1 X118.405 Y182.124 E9.10097
G1 X115.92 Y182.133 E9.18362
G1 X113.336 Y182.217 E9.26961
G1 X110.577 Y182.374 E9.36152
G1 X109.694 Y182.388 E9.3909
G1 X109.204 Y182.374 E9.4072
G1 X108.456 Y182.327 E9.43213
G1 X108.129 Y182.294 E9.44306
G1 X107.35 Y182.189 E9.4692
G1 X106.748 Y182.085 E9.48952
G1 X105.865 Y181.893 E9.51958
G1 X105.488 Y181.792 E9.53256
G1 X104.685 Y181.546 E9.56049
G1 X104.125 Y181.35 E9.58022
G1 X103.294 Y181.018 E9.60999
G1 X102.887 Y180.835 E9.62483
G1 X102.088 Y180.434 E9.65456
G1 X101.639 Y180.184 E9.67166
G1 X100.851 Y179.702 E9.70238
G1 X100.406 Y179.401 E9.72025
G1 X99.81 Y178.967 E9.74477
G1 X99.527 Y178.746 E9.75671
G1 X98.876 Y178.196 E9.78506
G1 X98.498 Y177.849 E9.80212
G1 X97.809 Y177.158 E9.83458
G1 X97.467 Y176.782 E9.85149
G1 X96.905 Y176.11 E9.88062
G1 X96.633 Y175.758 E9.89542
G1 X96.147 Y175.074 E9.92333
G1 X95.869 Y174.649 E9.94022
G1 X95.555 Y174.139 E9.96014
G1 X94.142 Y171.684 E10.05435
G1 X92.838 Y169.567 E10.13705
G1 X91.453 Y167.454 E10.22108
G1 X90.021 Y165.399 E10.30438
G1 X88.52 Y163.367 E10.38841
G1 X86.978 Y161.399 E10.47156
G1 X85.363 Y159.455 E10.55562
G1 X83.709 Y157.577 E10.63886
G1 X81.965 Y155.703 E10.724
G1 X80.235 Y153.946 E10.80601
G1 X78.403 Y152.189 E10.89044
G1 X76.529 Y150.491 E10.97455
G1 X74.621 Y148.86 E11.05804
G1 X72.666 Y147.277 E11.1417
G1 X70.669 Y145.755 E11.22521
G1 X68.61 Y144.276 E11.30953
G1 X66.552 Y142.884 E11.39217
G1 X64.399 Y141.514 E11.47705
G1 X62.253 Y140.234 E11.56016
G1 X60.861 Y139.441 E11.61344
G1 X60.502 Y139.224 E11.62739
G1 X59.884 Y138.822 E11.65191
G1 X59.456 Y138.522 E11.6693
G1 X58.871 Y138.08 E11.69368
G1 X58.603 Y137.862 E11.70517
G1 X58.01 Y137.345 E11.73134
G1 X57.709 Y137.062 E11.74508
G1 X57.18 Y136.531 E11.77001
G1 X56.699 Y136.002 E11.79379
G1 X56.392 Y135.64 E11.80958
G1 X55.89 Y134.998 E11.83668
G1 X55.622 Y134.626 E11.85193
G1 X55.147 Y133.911 E11.88048
G1 X54.88 Y133.469 E11.89766
G1 X54.447 Y132.685 E11.92745
G1 X54.251 Y132.291 E11.94208
G1 X53.923 Y131.563 E11.96864
G1 X53.726 Y131.075 E11.98615
G1 X53.417 Y130.202 E12.01695
G1 X53.278 Y129.753 E12.03258
G1 X53.071 Y128.976 E12.05932
G1 X52.954 Y128.449 E12.07728
G1 X52.792 Y127.535 E12.10815
G1 X52.728 Y127.04 E12.12475
G1 X52.653 Y126.243 E12.15138
G1 X52.627 Y125.79 E12.16647
G1 X52.612 Y125.043 E12.19132
G1 X52.638 Y124.181 E12.22
G1 X52.816 Y120.943 E12.32786
G1 X52.878 Y118.402 E12.4124
G1 X52.869 Y115.896 E12.49575
G1 X52.785 Y113.329 E12.58118
G1 X52.628 Y110.562 E12.67336
G1 X52.615 Y109.662 E12.70329
G1 X52.629 Y109.204 E12.71853
G1 X52.67 Y108.526 E12.74113
G1 X52.701 Y108.189 E12.75238
G1 X52.813 Y107.35 E12.78053
G1 X52.922 Y106.729 E12.8015
G1 X53.155 Y105.703 E12.8365
G1 X53.297 Y105.191 E12.85417
G1 X53.551 Y104.399 E12.88183
G1 X53.697 Y104 E12.89597
G1 X53.969 Y103.329 E12.92005
G1 X54.125 Y102.978 E12.93282
G1 X54.497 Y102.225 E12.96076
G1 X54.777 Y101.71 E12.98025
G1 X55.307 Y100.839 E13.01416
G1 X55.615 Y100.387 E13.03236
G1 X56.037 Y99.807 E13.05621
G1 X56.26 Y99.522 E13.06825
G1 X56.807 Y98.876 E13.0964
G1 X57.178 Y98.474 E13.1146
G1 X57.828 Y97.826 E13.14512
G1 X58.193 Y97.492 E13.16158
G1 X58.726 Y97.036 E13.18491
G1 X58.988 Y96.827 E13.19606
G1 X59.693 Y96.309 E13.22515
G1 X60.195 Y95.971 E13.24528
G1 F2700 E8.24528
G0 F6000 X96.107 Y60.73
G1 F2700 E13.24528
G1 F1200 X96.596 Y59.978 E13.27512
G1 X96.848 Y59.624 E13.28957
G1 X97.234 Y59.118 E13.31074
G1 X97.445 Y58.859 E13.32185
G1 X97.906 Y58.328 E13.34524
G1 X98.182 Y58.031 E13.35872
G1 X98.778 Y57.436 E13.38673
G1 X99.249 Y57.01 E13.40786
G1 X99.609 Y56.704 E13.42357
G1 X100.259 Y56.196 E13.45101
G1 X100.538 Y55.994 E13.46247
G1 X101.043 Y55.652 E13.48275
G1 X101.482 Y55.373 E13.50005
G1 X102.415 Y54.845 E13.53571
G1 X102.852 Y54.627 E13.55195
G1 X103.548 Y54.311 E13.57737
G1 X103.915 Y54.16 E13.59057
G1 X104.561 Y53.92 E13.61349
G1 X104.977 Y53.78 E13.62809
G1 X105.891 Y53.519 E13.65971
G1 X106.512 Y53.374 E13.68092
G1 X107.513 Y53.191 E13.71476
G1 X107.992 Y53.127 E13.73084
G1 X108.782 Y53.052 E13.75723
G1 X109.222 Y53.027 E13.77189
G1 X110.023 Y53.013 E13.79853
G1 X110.905 Y53.043 E13.82789
G1 X114.047 Y53.216 E13.93255
G1 X116.586 Y53.278 E14.01702
G1 X119.093 Y53.269 E14.1004
G1 X121.677 Y53.185 E14.18639
G1 X124.413 Y53.029 E14.27754
G1 X125.295 Y53.014 E14.30688
G1 X125.771 Y53.027 E14.32272
G1 X126.508 Y53.073 E14.34728
G1 X126.821 Y53.104 E14.35774
G1 X127.595 Y53.209 E14.38372
G1 X128.195 Y53.314 E14.40398
G1 X129.189 Y53.538 E14.43787
G1 X129.64 Y53.663 E14.45343
G1 X130.394 Y53.903 E14.47975
G1 X130.811 Y54.054 E14.4945
G1 X131.602 Y54.377 E14.52292
G1 X132.043 Y54.579 E14.53905
G1 X132.776 Y54.949 E14.56636
G1 X133.167 Y55.167 E14.58125
G1 X133.92 Y55.629 E14.61064
G1 X134.353 Y55.921 E14.62801
G1 X134.915 Y56.327 E14.65107
G1 X135.163 Y56.519 E14.6615
G1 X135.807 Y57.062 E14.68951
G1 X136.223 Y57.442 E14.70825
G1 X136.879 Y58.098 E14.73911
G1 X137.204 Y58.453 E14.75512
G1 X137.652 Y58.976 E14.77802
G1 X137.851 Y59.225 E14.78863
G1 X138.353 Y59.906 E14.81676
G1 X138.679 Y60.389 E14.83615
G1 X139.071 Y61.019 E14.86082
G1 X140.466 Y63.443 E14.95384
G1 X141.781 Y65.582 E15.03736
G1 X143.174 Y67.714 E15.12206
G1 X144.629 Y69.803 E15.20673
G1 X146.115 Y71.816 E15.28995
G1 X147.674 Y73.808 E15.37409
G1 X149.314 Y75.784 E15.4595
G1 X150.964 Y77.661 E15.54262
G1 X152.686 Y79.514 E15.62675
G1 X154.435 Y81.292 E15.7097
G1 X156.289 Y83.071 E15.79517
G1 X158.142 Y84.753 E15.8784
G1 X160.096 Y86.428 E15.964
G1 X162.032 Y87.995 E16.04684
G1 X164.037 Y89.524 E16.13071
G1 X166.115 Y91.02 E16.21587
G1 X168.194 Y92.428 E16.29938
G1 X170.324 Y93.785 E16.38338
G1 X172.523 Y95.099 E16.46858
G1 X173.687 Y95.757 E16.51306
G1 X174.313 Y96.131 E16.53731
G1 X174.895 Y96.508 E16.56037
G1 X175.239 Y96.748 E16.57432
G1 X175.833 Y97.194 E16.59903
G1 X176.136 Y97.439 E16.61199
G1 X176.853 Y98.075 E16.64387
G1 X177.305 Y98.515 E16.66485
G1 X177.986 Y99.242 E16.69798
G1 X178.291 Y99.601 E16.71365
G1 X178.8 Y100.252 E16.74113
G1 X179.059 Y100.61 E16.75583
G1 X179.512 Y101.295 E16.78314
G1 X179.771 Y101.722 E16.79975
G1 X180.191 Y102.483 E16.82866
G1 X180.38 Y102.863 E16.84278
G1 X180.708 Y103.587 E16.86922
G1 X180.899 Y104.059 E16.88615
G1 X181.203 Y104.916 E16.9164
G1 X181.337 Y105.35 E16.9315
G1 X181.544 Y106.127 E16.95825
G1 X181.654 Y106.619 E16.97502
G1 X181.797 Y107.408 E17.00168
G1 X181.852 Y107.792 E17.01459
G1 X181.937 Y108.613 E17.04204
G1 X181.971 Y109.148 E17.05987
G1 X181.99 Y109.95 E17.08655
G1 X181.966 Y110.774 E17.11397
G1 X181.786 Y114.047 E17.22299
G1 X181.724 Y116.587 E17.3075
G1 X181.733 Y119.093 E17.39085
G1 X181.817 Y121.684 E17.47707
G1 X181.974 Y124.444 E17.56902
G1 X181.987 Y125.326 E17.59836
G1 X181.974 Y125.773 E17.61323
G1 X181.927 Y126.515 E17.63796
G1 X181.888 Y126.902 E17.6509
G1 X181.776 Y127.704 E17.67783
G1 X181.68 Y128.237 E17.69584
G1 X181.462 Y129.19 E17.72836
G1 X181.324 Y129.686 E17.74548
G1 X181.087 Y130.429 E17.77142
G1 X180.954 Y130.797 E17.78444
G1 X180.665 Y131.514 E17.81015
G1 X180.489 Y131.907 E17.82447
G1 X180.114 Y132.661 E17.85248
G1 X179.866 Y133.113 E17.86963
G1 X179.38 Y133.911 E17.9007
G1 X179.096 Y134.334 E17.91765
G1 X178.666 Y134.928 E17.94204
G1 X178.455 Y135.198 E17.95344
G1 X177.921 Y135.829 E17.98093
G1 X177.551 Y136.233 E17.99915
G1 X176.888 Y136.895 E18.03031
G1 X176.525 Y137.226 E18.04665
G1 X175.863 Y137.782 E18.07541
G1 X175.529 Y138.039 E18.08942
G1 X174.865 Y138.511 E18.11652
G1 X174.45 Y138.782 E18.133
G1 X173.948 Y139.091 E18.15261
G1 X171.514 Y140.493 E18.24603
G1 X169.349 Y141.826 E18.3306
G1 X167.246 Y143.203 E18.4142
G1 X165.177 Y144.645 E18.49808
G1 X163.124 Y146.161 E18.58297
G1 X161.151 Y147.708 E18.66635
G1 X159.215 Y149.315 E18.75004
G1 X157.281 Y151.016 E18.8357
G1 X155.457 Y152.714 E18.91859
G1 X153.669 Y154.475 E19.00206
G1 X151.9 Y156.32 E19.08707
G1 X150.179 Y158.218 E19.17229
G1 X148.575 Y160.092 E19.25433
G1 X146.975 Y162.07 E19.33895
G1 X145.436 Y164.089 E19.42339
G1 X143.946 Y166.162 E19.5083
G1 X142.549 Y168.227 E19.59122
G1 X141.209 Y170.334 E19.67427
G1 X139.33 Y173.519 E19.79726
G1 X139.011 Y174.074 E19.81856
G1 X138.546 Y174.812 E19.84757
G1 X138.282 Y175.195 E19.86304
G1 X137.82 Y175.814 E19.88873
G1 X137.525 Y176.18 E19.90436
G1 X136.83 Y176.956 E19.93901
G1 X136.406 Y177.384 E19.95905
G1 X135.751 Y177.992 E19.98878
G1 X135.399 Y178.291 E20.00414
G1 X134.773 Y178.782 E20.0306
G1 X134.405 Y179.048 E20.0457
G1 X133.659 Y179.543 E20.07548
G1 X133.254 Y179.787 E20.0912
G1 X132.532 Y180.183 E20.11859
G1 X132.115 Y180.391 E20.13409
G1 X131.422 Y180.704 E20.15938
G1 X131.031 Y180.863 E20.17342
G1 X130.215 Y181.158 E20.20228
G1 X129.687 Y181.323 E20.22068
G1 X128.832 Y181.552 E20.25012
G1 X128.376 Y181.654 E20.26566
G1 X127.502 Y181.81 E20.29519
G1 X127.005 Y181.876 E20.31186
G1 X126.218 Y181.95 E20.33816
G1 X125.778 Y181.975 E20.35281
G1 X124.977 Y181.989 E20.37946
G1 X124.095 Y181.959 E20.40881
G1 X120.953 Y181.786 E20.51347
G1 X118.414 Y181.724 E20.59795
G1 X115.907 Y181.733 E20.68133
G1 X113.323 Y181.817 E20.76732
G1 X110.571 Y181.974 E20.859
G1 X109.705 Y181.988 E20.88781
G1 X109.229 Y181.975 E20.90365
G1 X108.495 Y181.929 E20.92811
G1 X108.182 Y181.898 E20.93857
